usr/share/icons/biglinux-icons-material/16/actions/view-calendar-birthday.svg

<svg version="1.1" viewBox="0 0 16 16" xmlns="http://www.w3.org/2000/svg">
 <defs>
  <style id="current-color-scheme" type="text/css">.ColorScheme-Text {
        color:#dedede;
      }</style>
 </defs>
 <path d="m3.5 0a0.5 0.5 0 0 0-0.5 0.5 0.5 0.5 0 0 0 0.5 0.5 0.5 0.5 0 0 0 0.5-0.5 0.5 0.5 0 0 0-0.5-0.5zm4 0a0.5 0.5 0 0 0-0.5 0.5 0.5 0.5 0 0 0 0.5 0.5 0.5 0.5 0 0 0 0.5-0.5 0.5 0.5 0 0 0-0.5-0.5zm4 0a0.5 0.5 0 0 0-0.5 0.5 0.5 0.5 0 0 0 0.5 0.5 0.5 0.5 0 0 0 0.5-0.5 0.5 0.5 0 0 0-0.5-0.5zm-8 2c-0.277 0-0.5 0.223-0.5 0.5v1.5h-1c-1.108 0-2 0.892-2 2v6c0 1.108 0.892 2 2 2h11c1.108 0 2-0.892 2-2v-6c0-1.108-0.892-2-2-2h-1v-1.5c0-0.277-0.223-0.5-0.5-0.5s-0.5 0.223-0.5 0.5v1.5h-3v-1.5c0-0.277-0.223-0.5-0.5-0.5s-0.5 0.223-0.5 0.5v1.5h-3v-1.5c0-0.277-0.223-0.5-0.5-0.5zm-1.5 3h11c0.554 0 1 0.446 1 1v2.9551a3 3 0 0 1-2.502-2.9551h-1a3 3 0 0 1-3 3 3 3 0 0 1-3-3h-1a3 3 0 0 1-2.498 2.957v-2.957c0-0.554 0.446-1 1-1zm1.9961 2.9297a4 4 0 0 0 3.502 2.0703 4 4 0 0 0 3.498-2.0703 4 4 0 0 0 3.0039 2.0332v2.0371c0 0.554-0.446 1-1 1h-11c-0.554 0-1-0.446-1-1v-2.0371a4 4 0 0 0 2.9961-2.0332z" class="ColorScheme-Text" fill="currentColor"/>
</svg>

<svg xmlns="http://www.w3.org/2000/svg" viewBox="0 0 16 16"><path fill="currentColor" d="M3.5 0a.5.5 0 0 0-.5.5.5.5 0 0 0 .5.5.5.5 0 0 0 .5-.5.5.5 0 0 0-.5-.5zm4 0a.5.5 0 0 0-.5.5.5.5 0 0 0 .5.5.5.5 0 0 0 .5-.5.5.5 0 0 0-.5-.5zm4 0a.5.5 0 0 0-.5.5.5.5 0 0 0 .5.5.5.5 0 0 0 .5-.5.5.5 0 0 0-.5-.5zm-8 2c-.277 0-.5.223-.5.5V4H2C.892 4 0 4.892 0 6v6c0 1.108.892 2 2 2h11c1.108 0 2-.892 2-2V6c0-1.108-.892-2-2-2h-1V2.5a.499.499 0 1 0-1 0V4H8V2.5a.499.499 0 1 0-1 0V4H4V2.5c0-.277-.223-.5-.5-.5zM2 5h11c.554 0 1 .446 1 1v2.955A3 3 0 0 1 11.498 6h-1a3 3 0 0 1-3 3 3 3 0 0 1-3-3h-1A3 3 0 0 1 1 8.957V6c0-.554.446-1 1-1zm1.996 2.93A4 4 0 0 0 7.498 10a4 4 0 0 0 3.498-2.07A4 4 0 0 0 14 9.963V12c0 .554-.446 1-1 1H2c-.554 0-1-.446-1-1V9.963A4 4 0 0 0 3.996 7.93z" style="color:#dedede"/></svg>
